src/lib/packages/icons/src/assets/line/bone.svg

<svg width="24" height="24" viewBox="0 0 24 24" fill="none" xmlns="http://www.w3.org/2000/svg">
<path d="M8.50103 21.7499C7.79103 21.7499 7.10408 21.5219 6.53008 21.0849C5.78008 20.5129 5.32509 19.668 5.25909 18.739C3.93309 18.649 2.83606 17.822 2.42706 16.579C2.08506 15.542 2.24505 14.4549 2.86505 13.5969C3.73305 12.3969 5.40907 11.933 6.77007 12.507C7.05307 12.629 7.37411 12.566 7.58611 12.353L12.35 7.58905C12.564 7.37505 12.6171 7.04499 12.4881 6.72699C12.1921 5.99499 12.174 5.16904 12.434 4.40204C12.766 3.42404 13.5951 2.64701 14.5991 2.37201C15.6081 2.09501 16.653 2.29302 17.465 2.91302C18.216 3.48402 18.673 4.32997 18.74 5.25897C20.065 5.34897 21.1621 6.17706 21.5721 7.42206C21.9141 8.45905 21.7541 9.54599 21.1341 10.404C20.2661 11.604 18.5891 12.0678 17.2291 11.4938C16.9481 11.3738 16.625 11.4349 16.413 11.6479L11.6491 16.412C11.4351 16.626 11.382 16.9559 11.511 17.2739C11.807 18.0059 11.825 18.8321 11.565 19.5991C11.234 20.5771 10.4041 21.3538 9.3991 21.6288C9.1011 21.7088 8.79903 21.7499 8.50103 21.7499ZM5.50311 17.247C5.83511 17.247 6.14801 17.376 6.38201 17.61C6.61901 17.847 6.75006 18.1639 6.75006 18.5019C6.75006 19.0509 7.002 19.559 7.44 19.893C7.884 20.232 8.43808 20.3338 9.00408 20.1808C9.52508 20.0378 9.97407 19.6199 10.1451 19.1169C10.3321 18.5689 10.235 18.1179 10.121 17.8369C9.76703 16.9639 9.95104 15.988 10.589 15.351L15.3531 10.5878C16.0001 9.93983 16.966 9.75397 17.814 10.113C18.544 10.419 19.451 10.1718 19.919 9.52484C20.26 9.05484 20.3411 8.47503 20.1491 7.89203C19.9131 7.17803 19.297 6.75191 18.502 6.75091C17.814 6.75091 17.2521 6.18803 17.2501 5.49603C17.2481 4.94703 16.996 4.44087 16.558 4.10687C16.115 3.76987 15.56 3.666 14.996 3.82C14.467 3.965 14.029 4.37295 13.855 4.88495C13.668 5.43295 13.7651 5.883 13.8791 6.164C14.2331 7.037 14.0491 8.01284 13.4111 8.64984L8.64703 13.413C7.99903 14.06 7.03109 14.2469 6.18609 13.8879C5.45409 13.5809 4.54911 13.828 4.08111 14.476C3.74011 14.946 3.65901 15.5258 3.85101 16.1088C4.08601 16.8208 4.70303 17.247 5.50103 17.247C5.50103 17.247 5.50211 17.247 5.50311 17.247ZM5.50201 17.997H5.51202H5.50201Z" fill="currentColor"/>
</svg>

<svg xmlns="http://www.w3.org/2000/svg" width="24" height="24" fill="none"><path fill="currentColor" d="M8.501 21.75c-.71 0-1.397-.228-1.97-.665a3.22 3.22 0 0 1-1.272-2.346c-1.326-.09-2.423-.917-2.832-2.16-.342-1.037-.182-2.124.438-2.982.868-1.2 2.544-1.664 3.905-1.09a.736.736 0 0 0 .816-.154l4.764-4.764c.214-.214.267-.544.138-.862a3.343 3.343 0 0 1-.054-2.325 3.202 3.202 0 0 1 2.165-2.03 3.26 3.26 0 0 1 4.141 2.887c1.325.09 2.422.918 2.832 2.163.342 1.037.182 2.124-.438 2.982-.868 1.2-2.545 1.664-3.905 1.09a.74.74 0 0 0-.816.154l-4.764 4.764c-.214.214-.267.544-.138.862.296.732.314 1.558.054 2.325a3.198 3.198 0 0 1-2.166 2.03c-.298.08-.6.12-.898.12Zm-2.998-4.503c.332 0 .645.129.879.363.237.237.368.554.368.892 0 .549.252 1.057.69 1.391.444.339.998.44 1.564.288a1.71 1.71 0 0 0 1.141-1.064c.187-.548.09-1-.024-1.28-.354-.873-.17-1.849.468-2.486l4.764-4.763a2.232 2.232 0 0 1 2.461-.475c.73.306 1.637.059 2.105-.588.341-.47.422-1.05.23-1.633-.236-.714-.852-1.14-1.647-1.141-.688 0-1.25-.563-1.252-1.255a1.743 1.743 0 0 0-.692-1.39 1.76 1.76 0 0 0-1.562-.286 1.686 1.686 0 0 0-1.141 1.065c-.187.548-.09.998.024 1.279.354.873.17 1.849-.468 2.486l-4.764 4.763a2.235 2.235 0 0 1-2.46.475 1.793 1.793 0 0 0-2.106.588c-.34.47-.422 1.05-.23 1.633.235.712.852 1.138 1.65 1.138h.002Zm-.001.75h.01-.01Z"/></svg>
